X:54
T:Lei chivau frus
O:France
A:Provence
C:Trad.
R:Danse trad.
S:Carnet du tambourinaire Ginas (1924)
Z:Transcrit et/ou corrig? par Michel BELLON - 2005-03-06
Z:Pour toute observation mailto:galouvielle@free.fr
M:2/4
L:1/8
K:Bb
e | defg | fedc | defd | e/d/e/f/ !breath!e e | defg | fedc | e3 :| B | c2c2 |B3B | c2c2 | B3B |
cded | cBAG | ABcA | B/A/B/c/ !breath!B B | c2c2 |B3B |c2c2 |B3B | cded | cBAG | ABcA |B3 !D.C.! |]
<end>
<start>
